GTG Color Correction LUT (RED Manager V1).cube
LUT_3D_SIZE 5
0 0 0
0.21633893743879093 0 0
0.48653839446686126 0 0
0.7432691972334307 0 0
1 0 0
0 0.25 0
0.21633893743879093 0.25 0
0.48653839446686126 0.25 0
0.7432691972334307 0.25 0
1 0.25 0
0 0.5 0
0.21633893743879093 0.5 0
0.48653839446686126 0.5 0
0.7432691972334307 0.5 0
1 0.5 0
0 0.75 0
0.21633893743879093 0.75 0
0.48653839446686126 0.75 0
0.7432691972334307 0.75 0
1 0.75 0
0 1 0
0.21633893743879093 1 0
0.48653839446686126 1 0
0.7432691972334307 1 0
1 1 0
0 0 0.25
0.21633893743879093 0 0.25
0.48653839446686126 0 0.25
0.7432691972334307 0 0.25
1 0 0.25
0 0.25 0.25
0.21633893743879093 0.25 0.25
0.48653839446686126 0.25 0.25
0.7432691972334307 0.25 0.25
1 0.25 0.25
0 0.5 0.25
0.21633893743879093 0.5 0.25
0.48653839446686126 0.5 0.25
0.7432691972334307 0.5 0.25
1 0.5 0.25
0 0.75 0.25
0.21633893743879093 0.75 0.25
0.48653839446686126 0.75 0.25
0.7432691972334307 0.75 0.25
1 0.75 0.25
0 1 0.25
0.21633893743879093 1 0.25
0.48653839446686126 1 0.25
0.7432691972334307 1 0.25
1 1 0.25
0 0 0.5
0.21633893743879093 0 0.5
0.48653839446686126 0 0.5
0.7432691972334307 0 0.5
1 0 0.5
0 0.25 0.5
0.21633893743879093 0.25 0.5
0.48653839446686126 0.25 0.5
0.7432691972334307 0.25 0.5
1 0.25 0.5
0 0.5 0.5
0.21633893743879093 0.5 0.5
0.48653839446686126 0.5 0.5
0.7432691972334307 0.5 0.5
1 0.5 0.5
0 0.75 0.5
0.21633893743879093 0.75 0.5
0.48653839446686126 0.75 0.5
0.7432691972334307 0.75 0.5
1 0.75 0.5
0 1 0.5
0.21633893743879093 1 0.5
0.48653839446686126 1 0.5
0.7432691972334307 1 0.5
1 1 0.5
0 0 0.75
0.21633893743879093 0 0.75
0.48653839446686126 0 0.75
0.7432691972334307 0 0.75
1 0 0.75
0 0.25 0.75
0.21633893743879093 0.25 0.75
0.48653839446686126 0.25 0.75
0.7432691972334307 0.25 0.75
1 0.25 0.75
0 0.5 0.75
0.21633893743879093 0.5 0.75
0.48653839446686126 0.5 0.75
0.7432691972334307 0.5 0.75
1 0.5 0.75
0 0.75 0.75
0.21633893743879093 0.75 0.75
0.48653839446686126 0.75 0.75
0.7432691972334307 0.75 0.75
1 0.75 0.75
0 1 0.75
0.21633893743879093 1 0.75
0.48653839446686126 1 0.75
0.7432691972334307 1 0.75
1 1 0.75
0 0 1
0.21633893743879093 0 1
0.48653839446686126 0 1
0.7432691972334307 0 1
1 0 1
0 0.25 1
0.21633893743879093 0.25 1
0.48653839446686126 0.25 1
0.7432691972334307 0.25 1
1 0.25 1
0 0.5 1
0.21633893743879093 0.5 1
0.48653839446686126 0.5 1
0.7432691972334307 0.5 1
1 0.5 1
0 0.75 1
0.21633893743879093 0.75 1
0.48653839446686126 0.75 1
0.7432691972334307 0.75 1
1 0.75 1
0 1 1
0.21633893743879093 1 1
0.48653839446686126 1 1
0.7432691972334307 1 1
1 1 1
