GTG Color Correction LUT (RED Manager V1).cube
LUT_3D_SIZE 17
0 0 0
0.0625 0 0
0.05430190040175393 0 0
0.13532041892027244 0 0
0.21633893743879093 0 0
0.2939902923919342 0 0
0.35817299308357653 0 0
0.42235569377521887 0 0
0.48653839446686126 0 0
0.5507210951585035 0 0
0.614903795850146 0 0
0.6790864965417883 0 0
0.7432691972334307 0 0
0.8074518979250729 0 0
0.8716345986167153 0 0
0.9358172993083577 0 0
1 0 0
0 0.0625 0
0.0625 0.0625 0
0.05430190040175393 0.0625 0
0.13532041892027244 0.0625 0
0.21633893743879093 0.0625 0
0.2939902923919342 0.0625 0
0.35817299308357653 0.0625 0
0.42235569377521887 0.0625 0
0.48653839446686126 0.0625 0
0.5507210951585035 0.0625 0
0.614903795850146 0.0625 0
0.6790864965417883 0.0625 0
0.7432691972334307 0.0625 0
0.8074518979250729 0.0625 0
0.8716345986167153 0.0625 0
0.9358172993083577 0.0625 0
1 0.0625 0
0 0.125 0
0.0625 0.125 0
0.05430190040175393 0.125 0
0.13532041892027244 0.125 0
0.21633893743879093 0.125 0
0.2939902923919342 0.125 0
0.35817299308357653 0.125 0
0.42235569377521887 0.125 0
0.48653839446686126 0.125 0
0.5507210951585035 0.125 0
0.614903795850146 0.125 0
0.6790864965417883 0.125 0
0.7432691972334307 0.125 0
0.8074518979250729 0.125 0
0.8716345986167153 0.125 0
0.9358172993083577 0.125 0
1 0.125 0
0 0.1875 0
0.0625 0.1875 0
0.05430190040175393 0.1875 0
0.13532041892027244 0.1875 0
0.21633893743879093 0.1875 0
0.2939902923919342 0.1875 0
0.35817299308357653 0.1875 0
0.42235569377521887 0.1875 0
0.48653839446686126 0.1875 0
0.5507210951585035 0.1875 0
0.614903795850146 0.1875 0
0.6790864965417883 0.1875 0
0.7432691972334307 0.1875 0
0.8074518979250729 0.1875 0
0.8716345986167153 0.1875 0
0.9358172993083577 0.1875 0
1 0.1875 0
0 0.25 0
0.0625 0.25 0
0.05430190040175393 0.25 0
0.13532041892027244 0.25 0
0.21633893743879093 0.25 0
0.2939902923919342 0.25 0
0.35817299308357653 0.25 0
0.42235569377521887 0.25 0
0.48653839446686126 0.25 0
0.5507210951585035 0.25 0
0.614903795850146 0.25 0
0.6790864965417883 0.25 0
0.7432691972334307 0.25 0
0.8074518979250729 0.25 0
0.8716345986167153 0.25 0
0.9358172993083577 0.25 0
1 0.25 0
0 0.3125 0
0.0625 0.3125 0
0.05430190040175393 0.3125 0
0.13532041892027244 0.3125 0
0.21633893743879093 0.3125 0
0.2939902923919342 0.3125 0
0.35817299308357653 0.3125 0
0.42235569377521887 0.3125 0
0.48653839446686126 0.3125 0
0.5507210951585035 0.3125 0
0.614903795850146 0.3125 0
0.6790864965417883 0.3125 0
0.7432691972334307 0.3125 0
0.8074518979250729 0.3125 0
0.8716345986167153 0.3125 0
0.9358172993083577 0.3125 0
1 0.3125 0
0 0.375 0
0.0625 0.375 0
0.05430190040175393 0.375 0
0.13532041892027244 0.375 0
0.21633893743879093 0.375 0
0.2939902923919342 0.375 0
0.35817299308357653 0.375 0
0.42235569377521887 0.375 0
0.48653839446686126 0.375 0
0.5507210951585035 0.375 0
0.614903795850146 0.375 0
0.6790864965417883 0.375 0
0.7432691972334307 0.375 0
0.8074518979250729 0.375 0
0.8716345986167153 0.375 0
0.9358172993083577 0.375 0
1 0.375 0
0 0.4375 0
0.0625 0.4375 0
0.05430190040175393 0.4375 0
0.13532041892027244 0.4375 0
0.21633893743879093 0.4375 0
0.2939902923919342 0.4375 0
0.35817299308357653 0.4375 0
0.42235569377521887 0.4375 0
0.48653839446686126 0.4375 0
0.5507210951585035 0.4375 0
0.614903795850146 0.4375 0
0.6790864965417883 0.4375 0
0.7432691972334307 0.4375 0
0.8074518979250729 0.4375 0
0.8716345986167153 0.4375 0
0.9358172993083577 0.4375 0
1 0.4375 0
0 0.5 0
0.0625 0.5 0
0.05430190040175393 0.5 0
0.13532041892027244 0.5 0
0.21633893743879093 0.5 0
0.2939902923919342 0.5 0
0.35817299308357653 0.5 0
0.42235569377521887 0.5 0
0.48653839446686126 0.5 0
0.5507210951585035 0.5 0
0.614903795850146 0.5 0
0.6790864965417883 0.5 0
0.7432691972334307 0.5 0
0.8074518979250729 0.5 0
0.8716345986167153 0.5 0
0.9358172993083577 0.5 0
1 0.5 0
0 0.5625 0
0.0625 0.5625 0
0.05430190040175393 0.5625 0
0.13532041892027244 0.5625 0
0.21633893743879093 0.5625 0
0.2939902923919342 0.5625 0
0.35817299308357653 0.5625 0
0.42235569377521887 0.5625 0
0.48653839446686126 0.5625 0
0.5507210951585035 0.5625 0
0.614903795850146 0.5625 0
0.6790864965417883 0.5625 0
0.7432691972334307 0.5625 0
0.8074518979250729 0.5625 0
0.8716345986167153 0.5625 0
0.9358172993083577 0.5625 0
1 0.5625 0
0 0.625 0
0.0625 0.625 0
0.05430190040175393 0.625 0
0.13532041892027244 0.625 0
0.21633893743879093 0.625 0
0.2939902923919342 0.625 0
0.35817299308357653 0.625 0
0.42235569377521887 0.625 0
0.48653839446686126 0.625 0
0.5507210951585035 0.625 0
0.614903795850146 0.625 0
0.6790864965417883 0.625 0
0.7432691972334307 0.625 0
0.8074518979250729 0.625 0
0.8716345986167153 0.625 0
0.9358172993083577 0.625 0
1 0.625 0
0 0.6875 0
0.0625 0.6875 0
0.05430190040175393 0.6875 0
0.13532041892027244 0.6875 0
0.21633893743879093 0.6875 0
0.2939902923919342 0.6875 0
0.35817299308357653 0.6875 0
0.42235569377521887 0.6875 0
0.48653839446686126 0.6875 0
0.5507210951585035 0.6875 0
0.614903795850146 0.6875 0
0.6790864965417883 0.6875 0
0.7432691972334307 0.6875 0
0.8074518979250729 0.6875 0
0.8716345986167153 0.6875 0
0.9358172993083577 0.6875 0
1 0.6875 0
0 0.75 0
0.0625 0.75 0
0.05430190040175393 0.75 0
0.13532041892027244 0.75 0
0.21633893743879093 0.75 0
0.2939902923919342 0.75 0
0.35817299308357653 0.75 0
0.42235569377521887 0.75 0
0.48653839446686126 0.75 0
0.5507210951585035 0.75 0
0.614903795850146 0.75 0
0.6790864965417883 0.75 0
0.7432691972334307 0.75 0
0.8074518979250729 0.75 0
0.8716345986167153 0.75 0
0.9358172993083577 0.75 0
1 0.75 0
0 0.8125 0
0.0625 0.8125 0
0.05430190040175393 0.8125 0
0.13532041892027244 0.8125 0
0.21633893743879093 0.8125 0
0.2939902923919342 0.8125 0
0.35817299308357653 0.8125 0
0.42235569377521887 0.8125 0
0.48653839446686126 0.8125 0
0.5507210951585035 0.8125 0
0.614903795850146 0.8125 0
0.6790864965417883 0.8125 0
0.7432691972334307 0.8125 0
0.8074518979250729 0.8125 0
0.8716345986167153 0.8125 0
0.9358172993083577 0.8125 0
1 0.8125 0
0 0.875 0
0.0625 0.875 0
0.05430190040175393 0.875 0
0.13532041892027244 0.875 0
0.21633893743879093 0.875 0
0.2939902923919342 0.875 0
0.35817299308357653 0.875 0
0.42235569377521887 0.875 0
0.48653839446686126 0.875 0
0.5507210951585035 0.875 0
0.614903795850146 0.875 0
0.6790864965417883 0.875 0
0.7432691972334307 0.875 0
0.8074518979250729 0.875 0
0.8716345986167153 0.875 0
0.9358172993083577 0.875 0
1 0.875 0
0 0.9375 0
0.0625 0.9375 0
0.05430190040175393 0.9375 0
0.13532041892027244 0.9375 0
0.21633893743879093 0.9375 0
0.2939902923919342 0.9375 0
0.35817299308357653 0.9375 0
0.42235569377521887 0.9375 0
0.48653839446686126 0.9375 0
0.5507210951585035 0.9375 0
0.614903795850146 0.9375 0
0.6790864965417883 0.9375 0
0.7432691972334307 0.9375 0
0.8074518979250729 0.9375 0
0.8716345986167153 0.9375 0
0.9358172993083577 0.9375 0
1 0.9375 0
0 1 0
0.0625 1 0
0.05430190040175393 1 0
0.13532041892027244 1 0
0.21633893743879093 1 0
0.2939902923919342 1 0
0.35817299308357653 1 0
0.42235569377521887 1 0
0.48653839446686126 1 0
0.5507210951585035 1 0
0.614903795850146 1 0
0.6790864965417883 1 0
0.7432691972334307 1 0
0.8074518979250729 1 0
0.8716345986167153 1 0
0.9358172993083577 1 0
1 1 0
0 0 0.0625
0.0625 0 0.0625
0.05430190040175393 0 0.0625
0.13532041892027244 0 0.0625
0.21633893743879093 0 0.0625
0.2939902923919342 0 0.0625
0.35817299308357653 0 0.0625
0.42235569377521887 0 0.0625
0.48653839446686126 0 0.0625
0.5507210951585035 0 0.0625
0.614903795850146 0 0.0625
0.6790864965417883 0 0.0625
0.7432691972334307 0 0.0625
0.8074518979250729 0 0.0625
0.8716345986167153 0 0.0625
0.9358172993083577 0 0.0625
1 0 0.0625
0 0.0625 0.0625
0.0625 0.0625 0.0625
0.05430190040175393 0.0625 0.0625
0.13532041892027244 0.0625 0.0625
0.21633893743879093 0.0625 0.0625
0.2939902923919342 0.0625 0.0625
0.35817299308357653 0.0625 0.0625
0.42235569377521887 0.0625 0.0625
0.48653839446686126 0.0625 0.0625
0.5507210951585035 0.0625 0.0625
0.614903795850146 0.0625 0.0625
0.6790864965417883 0.0625 0.0625
0.7432691972334307 0.0625 0.0625
0.8074518979250729 0.0625 0.0625
0.8716345986167153 0.0625 0.0625
0.9358172993083577 0.0625 0.0625
1 0.0625 0.0625
0 0.125 0.0625
0.0625 0.125 0.0625
0.05430190040175393 0.125 0.0625
0.13532041892027244 0.125 0.0625
0.21633893743879093 0.125 0.0625
0.2939902923919342 0.125 0.0625
0.35817299308357653 0.125 0.0625
0.42235569377521887 0.125 0.0625
0.48653839446686126 0.125 0.0625
0.5507210951585035 0.125 0.0625
0.614903795850146 0.125 0.0625
0.6790864965417883 0.125 0.0625
0.7432691972334307 0.125 0.0625
0.8074518979250729 0.125 0.0625
0.8716345986167153 0.125 0.0625
0.9358172993083577 0.125 0.0625
1 0.125 0.0625
0 0.1875 0.0625
0.0625 0.1875 0.0625
0.05430190040175393 0.1875 0.0625
0.13532041892027244 0.1875 0.0625
0.21633893743879093 0.1875 0.0625
0.2939902923919342 0.1875 0.0625
0.35817299308357653 0.1875 0.0625
0.42235569377521887 0.1875 0.0625
0.48653839446686126 0.1875 0.0625
0.5507210951585035 0.1875 0.0625
0.614903795850146 0.1875 0.0625
0.6790864965417883 0.1875 0.0625
0.7432691972334307 0.1875 0.0625
0.8074518979250729 0.1875 0.0625
0.8716345986167153 0.1875 0.0625
0.9358172993083577 0.1875 0.0625
1 0.1875 0.0625
0 0.25 0.0625
0.0625 0.25 0.0625
0.05430190040175393 0.25 0.0625
0.13532041892027244 0.25 0.0625
0.21633893743879093 0.25 0.0625
0.2939902923919342 0.25 0.0625
0.35817299308357653 0.25 0.0625
0.42235569377521887 0.25 0.0625
0.48653839446686126 0.25 0.0625
0.5507210951585035 0.25 0.0625
0.614903795850146 0.25 0.0625
0.6790864965417883 0.25 0.0625
0.7432691972334307 0.25 0.0625
0.8074518979250729 0.25 0.0625
0.8716345986167153 0.25 0.0625
0.9358172993083577 0.25 0.0625
1 0.25 0.0625
0 0.3125 0.0625
0.0625 0.3125 0.0625
0.05430190040175393 0.3125 0.0625
0.13532041892027244 0.3125 0.0625
0.21633893743879093 0.3125 0.0625
0.2939902923919342 0.3125 0.0625
0.35817299308357653 0.3125 0.0625
0.42235569377521887 0.3125 0.0625
0.48653839446686126 0.3125 0.0625
0.5507210951585035 0.3125 0.0625
0.614903795850146 0.3125 0.0625
0.6790864965417883 0.3125 0.0625
0.7432691972334307 0.3125 0.0625
0.8074518979250729 0.3125 0.0625
0.8716345986167153 0.3125 0.0625
0.9358172993083577 0.3125 0.0625
1 0.3125 0.0625
0 0.375 0.0625
0.0625 0.375 0.0625
0.05430190040175393 0.375 0.0625
0.13532041892027244 0.375 0.0625
0.21633893743879093 0.375 0.0625
0.2939902923919342 0.375 0.0625
0.35817299308357653 0.375 0.0625
0.42235569377521887 0.375 0.0625
0.48653839446686126 0.375 0.0625
0.5507210951585035 0.375 0.0625
0.614903795850146 0.375 0.0625
0.6790864965417883 0.375 0.0625
0.7432691972334307 0.375 0.0625
0.8074518979250729 0.375 0.0625
0.8716345986167153 0.375 0.0625
0.9358172993083577 0.375 0.0625
1 0.375 0.0625
0 0.4375 0.0625
0.0625 0.4375 0.0625
0.05430190040175393 0.4375 0.0625
0.13532041892027244 0.4375 0.0625
0.21633893743879093 0.4375 0.0625
0.2939902923919342 0.4375 0.0625
0.35817299308357653 0.4375 0.0625
0.42235569377521887 0.4375 0.0625
0.48653839446686126 0.4375 0.0625
0.5507210951585035 0.4375 0.0625
0.614903795850146 0.4375 0.0625
0.6790864965417883 0.4375 0.0625
0.7432691972334307 0.4375 0.0625
0.8074518979250729 0.4375 0.0625
0.8716345986167153 0.4375 0.0625
0.9358172993083577 0.4375 0.0625
1 0.4375 0.0625
0 0.5 0.0625
0.0625 0.5 0.0625
0.05430190040175393 0.5 0.0625
0.13532041892027244 0.5 0.0625
0.21633893743879093 0.5 0.0625
0.2939902923919342 0.5 0.0625
0.35817299308357653 0.5 0.0625
0.42235569377521887 0.5 0.0625
0.48653839446686126 0.5 0.0625
0.5507210951585035 0.5 0.0625
0.614903795850146 0.5 0.0625
0.6790864965417883 0.5 0.0625
0.7432691972334307 0.5 0.0625
0.8074518979250729 0.5 0.0625
0.8716345986167153 0.5 0.0625
0.9358172993083577 0.5 0.0625
1 0.5 0.0625
0 0.5625 0.0625
0.0625 0.5625 0.0625
0.05430190040175393 0.5625 0.0625
0.13532041892027244 0.5625 0.0625
0.21633893743879093 0.5625 0.0625
0.2939902923919342 0.5625 0.0625
0.35817299308357653 0.5625 0.0625
0.42235569377521887 0.5625 0.0625
0.48653839446686126 0.5625 0.0625
0.5507210951585035 0.5625 0.0625
0.614903795850146 0.5625 0.0625
0.6790864965417883 0.5625 0.0625
0.7432691972334307 0.5625 0.0625
0.8074518979250729 0.5625 0.0625
0.8716345986167153 0.5625 0.0625
0.9358172993083577 0.5625 0.0625
1 0.5625 0.0625
0 0.625 0.0625
0.0625 0.625 0.0625
0.05430190040175393 0.625 0.0625
0.13532041892027244 0.625 0.0625
0.21633893743879093 0.625 0.0625
0.2939902923919342 0.625 0.0625
0.35817299308357653 0.625 0.0625
0.42235569377521887 0.625 0.0625
0.48653839446686126 0.625 0.0625
0.5507210951585035 0.625 0.0625
0.614903795850146 0.625 0.0625
0.6790864965417883 0.625 0.0625
0.7432691972334307 0.625 0.0625
0.8074518979250729 0.625 0.0625
0.8716345986167153 0.625 0.0625
0.9358172993083577 0.625 0.0625
1 0.625 0.0625
0 0.6875 0.0625
0.0625 0.6875 0.0625
0.05430190040175393 0.6875 0.0625
0.13532041892027244 0.6875 0.0625
0.21633893743879093 0.6875 0.0625
0.2939902923919342 0.6875 0.0625
0.35817299308357653 0.6875 0.0625
0.42235569377521887 0.6875 0.0625
0.48653839446686126 0.6875 0.0625
0.5507210951585035 0.6875 0.0625
0.614903795850146 0.6875 0.0625
0.6790864965417883 0.6875 0.0625
0.7432691972334307 0.6875 0.0625
0.8074518979250729 0.6875 0.0625
0.8716345986167153 0.6875 0.0625
0.9358172993083577 0.6875 0.0625
1 0.6875 0.0625
0 0.75 0.0625
0.0625 0.75 0.0625
0.05430190040175393 0.75 0.0625
0.13532041892027244 0.75 0.0625
0.21633893743879093 0.75 0.0625
0.2939902923919342 0.75 0.0625
0.35817299308357653 0.75 0.0625
0.42235569377521887 0.75 0.0625
0.48653839446686126 0.75 0.0625
0.5507210951585035 0.75 0.0625
0.614903795850146 0.75 0.0625
0.6790864965417883 0.75 0.0625
0.7432691972334307 0.75 0.0625
0.8074518979250729 0.75 0.0625
0.8716345986167153 0.75 0.0625
0.9358172993083577 0.75 0.0625
1 0.75 0.0625
0 0.8125 0.0625
0.0625 0.8125 0.0625
0.05430190040175393 0.8125 0.0625
0.13532041892027244 0.8125 0.0625
0.21633893743879093 0.8125 0.0625
0.2939902923919342 0.8125 0.0625
0.35817299308357653 0.8125 0.0625
0.42235569377521887 0.8125 0.0625
0.48653839446686126 0.8125 0.0625
0.5507210951585035 0.8125 0.0625
0.614903795850146 0.8125 0.0625
0.6790864965417883 0.8125 0.0625
0.7432691972334307 0.8125 0.0625
0.8074518979250729 0.8125 0.0625
0.8716345986167153 0.8125 0.0625
0.9358172993083577 0.8125 0.0625
1 0.8125 0.0625
0 0.875 0.0625
0.0625 0.875 0.0625
0.05430190040175393 0.875 0.0625
0.13532041892027244 0.875 0.0625
0.21633893743879093 0.875 0.0625
0.2939902923919342 0.875 0.0625
0.35817299308357653 0.875 0.0625
0.42235569377521887 0.875 0.0625
0.48653839446686126 0.875 0.0625
0.5507210951585035 0.875 0.0625
0.614903795850146 0.875 0.0625
0.6790864965417883 0.875 0.0625
0.7432691972334307 0.875 0.0625
0.8074518979250729 0.875 0.0625
0.8716345986167153 0.875 0.0625
0.9358172993083577 0.875 0.0625
1 0.875 0.0625
0 0.9375 0.0625
0.0625 0.9375 0.0625
0.05430190040175393 0.9375 0.0625
0.13532041892027244 0.9375 0.0625
0.21633893743879093 0.9375 0.0625
0.2939902923919342 0.9375 0.0625
0.35817299308357653 0.9375 0.0625
0.42235569377521887 0.9375 0.0625
0.48653839446686126 0.9375 0.0625
0.5507210951585035 0.9375 0.0625
0.614903795850146 0.9375 0.0625
0.6790864965417883 0.9375 0.0625
0.7432691972334307 0.9375 0.0625
0.8074518979250729 0.9375 0.0625
0.8716345986167153 0.9375 0.0625
0.9358172993083577 0.9375 0.0625
1 0.9375 0.0625
0 1 0.0625
0.0625 1 0.0625
0.05430190040175393 1 0.0625
0.13532041892027244 1 0.0625
0.21633893743879093 1 0.0625
0.2939902923919342 1 0.0625
0.35817299308357653 1 0.0625
0.42235569377521887 1 0.0625
0.48653839446686126 1 0.0625
0.5507210951585035 1 0.0625
0.614903795850146 1 0.0625
0.6790864965417883 1 0.0625
0.7432691972334307 1 0.0625
0.8074518979250729 1 0.0625
0.8716345986167153 1 0.0625
0.9358172993083577 1 0.0625
1 1 0.0625
0 0 0.125
0.0625 0 0.125
0.05430190040175393 0 0.125
0.13532041892027244 0 0.125
0.21633893743879093 0 0.125
0.2939902923919342 0 0.125
0.35817299308357653 0 0.125
0.42235569377521887 0 0.125
0.48653839446686126 0 0.125
0.5507210951585035 0 0.125
0.614903795850146 0 0.125
0.6790864965417883 0 0.125
0.7432691972334307 0 0.125
0.8074518979250729 0 0.125
0.8716345986167153 0 0.125
0.9358172993083577 0 0.125
1 0 0.125
0 0.0625 0.125
0.0625 0.0625 0.125
0.05430190040175393 0.0625 0.125
0.13532041892027244 0.0625 0.125
0.21633893743879093 0.0625 0.125
0.2939902923919342 0.0625 0.125
0.35817299308357653 0.0625 0.125
0.42235569377521887 0.0625 0.125
0.48653839446686126 0.0625 0.125
0.5507210951585035 0.0625 0.125
0.614903795850146 0.0625 0.125
0.6790864965417883 0.0625 0.125
0.7432691972334307 0.0625 0.125
0.8074518979250729 0.0625 0.125
0.8716345986167153 0.0625 0.125
0.9358172993083577 0.0625 0.125
1 0.0625 0.125
0 0.125 0.125
0.0625 0.125 0.125
0.05430190040175393 0.125 0.125
0.13532041892027244 0.125 0.125
0.21633893743879093 0.125 0.125
0.2939902923919342 0.125 0.125
0.35817299308357653 0.125 0.125
0.42235569377521887 0.125 0.125
0.48653839446686126 0.125 0.125
0.5507210951585035 0.125 0.125
0.614903795850146 0.125 0.125
0.6790864965417883 0.125 0.125
0.7432691972334307 0.125 0.125
0.8074518979250729 0.125 0.125
0.8716345986167153 0.125 0.125
0.9358172993083577 0.125 0.125
1 0.125 0.125
0 0.1875 0.125
0.0625 0.1875 0.125
0.05430190040175393 0.1875 0.125
0.13532041892027244 0.1875 0.125
0.21633893743879093 0.1875 0.125
0.2939902923919342 0.1875 0.125
0.35817299308357653 0.1875 0.125
0.42235569377521887 0.1875 0.125
0.48653839446686126 0.1875 0.125
0.5507210951585035 0.1875 0.125
0.614903795850146 0.1875 0.125
0.6790864965417883 0.1875 0.125
0.7432691972334307 0.1875 0.125
0.8074518979250729 0.1875 0.125
0.8716345986167153 0.1875 0.125
0.9358172993083577 0.1875 0.125
1 0.1875 0.125
0 0.25 0.125
0.0625 0.25 0.125
0.05430190040175393 0.25 0.125
0.13532041892027244 0.25 0.125
0.21633893743879093 0.25 0.125
0.2939902923919342 0.25 0.125
0.35817299308357653 0.25 0.125
0.42235569377521887 0.25 0.125
0.48653839446686126 0.25 0.125
0.5507210951585035 0.25 0.125
0.614903795850146 0.25 0.125
0.6790864965417883 0.25 0.125
0.7432691972334307 0.25 0.125
0.8074518979250729 0.25 0.125
0.8716345986167153 0.25 0.125
0.9358172993083577 0.25 0.125
1 0.25 0.125
0 0.3125 0.125
0.0625 0.3125 0.125
0.05430190040175393 0.3125 0.125
0.13532041892027244 0.3125 0.125
0.21633893743879093 0.3125 0.125
0.2939902923919342 0.3125 0.125
0.35817299308357653 0.3125 0.125
0.42235569377521887 0.3125 0.125
0.48653839446686126 0.3125 0.125
0.5507210951585035 0.3125 0.125
0.614903795850146 0.3125 0.125
0.6790864965417883 0.3125 0.125
0.7432691972334307 0.3125 0.125
0.8074518979250729 0.3125 0.125
0.8716345986167153 0.3125 0.125
0.9358172993083577 0.3125 0.125
1 0.3125 0.125
0 0.375 0.125
0.0625 0.375 0.125
0.05430190040175393 0.375 0.125
0.13532041892027244 0.375 0.125
0.21633893743879093 0.375 0.125
0.2939902923919342 0.375 0.125
0.35817299308357653 0.375 0.125
0.42235569377521887 0.375 0.125
0.48653839446686126 0.375 0.125
0.5507210951585035 0.375 0.125
0.614903795850146 0.375 0.125
0.6790864965417883 0.375 0.125
0.7432691972334307 0.375 0.125
0.8074518979250729 0.375 0.125
0.8716345986167153 0.375 0.125
0.9358172993083577 0.375 0.125
1 0.375 0.125
0 0.4375 0.125
0.0625 0.4375 0.125
0.05430190040175393 0.4375 0.125
0.13532041892027244 0.4375 0.125
0.21633893743879093 0.4375 0.125
0.2939902923919342 0.4375 0.125
0.35817299308357653 0.4375 0.125
0.42235569377521887 0.4375 0.125
0.48653839446686126 0.4375 0.125
0.5507210951585035 0.4375 0.125
0.614903795850146 0.4375 0.125
0.6790864965417883 0.4375 0.125
0.7432691972334307 0.4375 0.125
0.8074518979250729 0.4375 0.125
0.8716345986167153 0.4375 0.125
0.9358172993083577 0.4375 0.125
1 0.4375 0.125
0 0.5 0.125
0.0625 0.5 0.125
0.05430190040175393 0.5 0.125
0.13532041892027244 0.5 0.125
0.21633893743879093 0.5 0.125
0.2939902923919342 0.5 0.125
0.35817299308357653 0.5 0.125
0.42235569377521887 0.5 0.125
0.48653839446686126 0.5 0.125
0.5507210951585035 0.5 0.125
0.614903795850146 0.5 0.125
0.6790864965417883 0.5 0.125
0.7432691972334307 0.5 0.125
0.8074518979250729 0.5 0.125
0.8716345986167153 0.5 0.125
0.9358172993083577 0.5 0.125
1 0.5 0.125
0 0.5625 0.125
0.0625 0.5625 0.125
0.05430190040175393 0.5625 0.125
0.13532041892027244 0.5625 0.125
0.21633893743879093 0.5625 0.125
0.2939902923919342 0.5625 0.125
0.35817299308357653 0.5625 0.125
0.42235569377521887 0.5625 0.125
0.48653839446686126 0.5625 0.125
0.5507210951585035 0.5625 0.125
0.614903795850146 0.5625 0.125
0.6790864965417883 0.5625 0.125
0.7432691972334307 0.5625 0.125
0.8074518979250729 0.5625 0.125
0.8716345986167153 0.5625 0.125
0.9358172993083577 0.5625 0.125
1 0.5625 0.125
0 0.625 0.125
0.0625 0.625 0.125
0.05430190040175393 0.625 0.125
0.13532041892027244 0.625 0.125
0.21633893743879093 0.625 0.125
0.2939902923919342 0.625 0.125
0.35817299308357653 0.625 0.125
0.42235569377521887 0.625 0.125
0.48653839446686126 0.625 0.125
0.5507210951585035 0.625 0.125
0.614903795850146 0.625 0.125
0.6790864965417883 0.625 0.125
0.7432691972334307 0.625 0.125
0.8074518979250729 0.625 0.125
0.8716345986167153 0.625 0.125
0.9358172993083577 0.625 0.125
1 0.625 0.125
0 0.6875 0.125
0.0625 0.6875 0.125
0.05430190040175393 0.6875 0.125
0.13532041892027244 0.6875 0.125
0.21633893743879093 0.6875 0.125
0.2939902923919342 0.6875 0.125
0.35817299308357653 0.6875 0.125
0.42235569377521887 0.6875 0.125
0.48653839446686126 0.6875 0.125
0.5507210951585035 0.6875 0.125
0.614903795850146 0.6875 0.125
0.6790864965417883 0.6875 0.125
0.7432691972334307 0.6875 0.125
0.8074518979250729 0.6875 0.125
0.8716345986167153 0.6875 0.125
0.9358172993083577 0.6875 0.125
1 0.6875 0.125
0 0.75 0.125
0.0625 0.75 0.125
0.05430190040175393 0.75 0.125
0.13532041892027244 0.75 0.125
0.21633893743879093 0.75 0.125
0.2939902923919342 0.75 0.125
0.35817299308357653 0.75 0.125
0.42235569377521887 0.75 0.125
0.48653839446686126 0.75 0.125
0.5507210951585035 0.75 0.125
0.614903795850146 0.75 0.125
0.6790864965417883 0.75 0.125
0.7432691972334307 0.75 0.125
0.8074518979250729 0.75 0.125
0.8716345986167153 0.75 0.125
0.9358172993083577 0.75 0.125
1 0.75 0.125
0 0.8125 0.125
0.0625 0.8125 0.125
0.05430190040175393 0.8125 0.125
0.13532041892027244 0.8125 0.125
0.21633893743879093 0.8125 0.125
0.2939902923919342 0.8125 0.125
0.35817299308357653 0.8125 0.125
0.42235569377521887 0.8125 0.125
0.48653839446686126 0.8125 0.125
0.5507210951585035 0.8125 0.125
0.614903795850146 0.8125 0.125
0.6790864965417883 0.8125 0.125
0.7432691972334307 0.8125 0.125
0.8074518979250729 0.8125 0.125
0.8716345986167153 0.8125 0.125
0.9358172993083577 0.8125 0.125
1 0.8125 0.125
0 0.875 0.125
0.0625 0.875 0.125
0.05430190040175393 0.875 0.125
0.13532041892027244 0.875 0.125
0.21633893743879093 0.875 0.125
0.2939902923919342 0.875 0.125
0.35817299308357653 0.875 0.125
0.42235569377521887 0.875 0.125
0.48653839446686126 0.875 0.125
0.5507210951585035 0.875 0.125
0.614903795850146 0.875 0.125
0.6790864965417883 0.875 0.125
0.7432691972334307 0.875 0.125
0.8074518979250729 0.875 0.125
0.8716345986167153 0.875 0.125
0.9358172993083577 0.875 0.125
1 0.875 0.125
0 0.9375 0.125
0.0625 0.9375 0.125
0.05430190040175393 0.9375 0.125
0.13532041892027244 0.9375 0.125
0.21633893743879093 0.9375 0.125
0.2939902923919342 0.9375 0.125
0.35817299308357653 0.9375 0.125
0.42235569377521887 0.9375 0.125
0.48653839446686126 0.9375 0.125
0.5507210951585035 0.9375 0.125
0.614903795850146 0.9375 0.125
0.6790864965417883 0.9375 0.125
0.7432691972334307 0.9375 0.125
0.8074518979250729 0.9375 0.125
0.8716345986167153 0.9375 0.125
0.9358172993083577 0.9375 0.125
1 0.9375 0.125
0 1 0.125
0.0625 1 0.125
0.05430190040175393 1 0.125
0.13532041892027244 1 0.125
0.21633893743879093 1 0.125
0.2939902923919342 1 0.125
0.35817299308357653 1 0.125
0.42235569377521887 1 0.125
0.48653839446686126 1 0.125
0.5507210951585035 1 0.125
0.614903795850146 1 0.125
0.6790864965417883 1 0.125
0.7432691972334307 1 0.125
0.8074518979250729 1 0.125
0.8716345986167153 1 0.125
0.9358172993083577 1 0.125
1 1 0.125
0 0 0.1875
0.0625 0 0.1875
0.05430190040175393 0 0.1875
0.13532041892027244 0 0.1875
0.21633893743879093 0 0.1875
0.2939902923919342 0 0.1875
0.35817299308357653 0 0.1875
0.42235569377521887 0 0.1875
0.48653839446686126 0 0.1875
0.5507210951585035 0 0.1875
