GTG Color Correction LUT (RED Manager V1).cube
LUT_3D_SIZE 9
0 0 0
0.05430190040175393 0 0
0.21633893743879093 0 0
0.35817299308357653 0 0
0.48653839446686126 0 0
0.614903795850146 0 0
0.7432691972334307 0 0
0.8716345986167153 0 0
1 0 0
0 0.125 0
0.05430190040175393 0.125 0
0.21633893743879093 0.125 0
0.35817299308357653 0.125 0
0.48653839446686126 0.125 0
0.614903795850146 0.125 0
0.7432691972334307 0.125 0
0.8716345986167153 0.125 0
1 0.125 0
0 0.25 0
0.05430190040175393 0.25 0
0.21633893743879093 0.25 0
0.35817299308357653 0.25 0
0.48653839446686126 0.25 0
0.614903795850146 0.25 0
0.7432691972334307 0.25 0
0.8716345986167153 0.25 0
1 0.25 0
0 0.375 0
0.05430190040175393 0.375 0
0.21633893743879093 0.375 0
0.35817299308357653 0.375 0
0.48653839446686126 0.375 0
0.614903795850146 0.375 0
0.7432691972334307 0.375 0
0.8716345986167153 0.375 0
1 0.375 0
0 0.5 0
0.05430190040175393 0.5 0
0.21633893743879093 0.5 0
0.35817299308357653 0.5 0
0.48653839446686126 0.5 0
0.614903795850146 0.5 0
0.7432691972334307 0.5 0
0.8716345986167153 0.5 0
1 0.5 0
0 0.625 0
0.05430190040175393 0.625 0
0.21633893743879093 0.625 0
0.35817299308357653 0.625 0
0.48653839446686126 0.625 0
0.614903795850146 0.625 0
0.7432691972334307 0.625 0
0.8716345986167153 0.625 0
1 0.625 0
0 0.75 0
0.05430190040175393 0.75 0
0.21633893743879093 0.75 0
0.35817299308357653 0.75 0
0.48653839446686126 0.75 0
0.614903795850146 0.75 0
0.7432691972334307 0.75 0
0.8716345986167153 0.75 0
1 0.75 0
0 0.875 0
0.05430190040175393 0.875 0
0.21633893743879093 0.875 0
0.35817299308357653 0.875 0
0.48653839446686126 0.875 0
0.614903795850146 0.875 0
0.7432691972334307 0.875 0
0.8716345986167153 0.875 0
1 0.875 0
0 1 0
0.05430190040175393 1 0
0.21633893743879093 1 0
0.35817299308357653 1 0
0.48653839446686126 1 0
0.614903795850146 1 0
0.7432691972334307 1 0
0.8716345986167153 1 0
1 1 0
0 0 0.125
0.05430190040175393 0 0.125
0.21633893743879093 0 0.125
0.35817299308357653 0 0.125
0.48653839446686126 0 0.125
0.614903795850146 0 0.125
0.7432691972334307 0 0.125
0.8716345986167153 0 0.125
1 0 0.125
0 0.125 0.125
0.05430190040175393 0.125 0.125
0.21633893743879093 0.125 0.125
0.35817299308357653 0.125 0.125
0.48653839446686126 0.125 0.125
0.614903795850146 0.125 0.125
0.7432691972334307 0.125 0.125
0.8716345986167153 0.125 0.125
1 0.125 0.125
0 0.25 0.125
0.05430190040175393 0.25 0.125
0.21633893743879093 0.25 0.125
0.35817299308357653 0.25 0.125
0.48653839446686126 0.25 0.125
0.614903795850146 0.25 0.125
0.7432691972334307 0.25 0.125
0.8716345986167153 0.25 0.125
1 0.25 0.125
0 0.375 0.125
0.05430190040175393 0.375 0.125
0.21633893743879093 0.375 0.125
0.35817299308357653 0.375 0.125
0.48653839446686126 0.375 0.125
0.614903795850146 0.375 0.125
0.7432691972334307 0.375 0.125
0.8716345986167153 0.375 0.125
1 0.375 0.125
0 0.5 0.125
0.05430190040175393 0.5 0.125
0.21633893743879093 0.5 0.125
0.35817299308357653 0.5 0.125
0.48653839446686126 0.5 0.125
0.614903795850146 0.5 0.125
0.7432691972334307 0.5 0.125
0.8716345986167153 0.5 0.125
1 0.5 0.125
0 0.625 0.125
0.05430190040175393 0.625 0.125
0.21633893743879093 0.625 0.125
0.35817299308357653 0.625 0.125
0.48653839446686126 0.625 0.125
0.614903795850146 0.625 0.125
0.7432691972334307 0.625 0.125
0.8716345986167153 0.625 0.125
1 0.625 0.125
0 0.75 0.125
0.05430190040175393 0.75 0.125
0.21633893743879093 0.75 0.125
0.35817299308357653 0.75 0.125
0.48653839446686126 0.75 0.125
0.614903795850146 0.75 0.125
0.7432691972334307 0.75 0.125
0.8716345986167153 0.75 0.125
1 0.75 0.125
0 0.875 0.125
0.05430190040175393 0.875 0.125
0.21633893743879093 0.875 0.125
0.35817299308357653 0.875 0.125
0.48653839446686126 0.875 0.125
0.614903795850146 0.875 0.125
0.7432691972334307 0.875 0.125
0.8716345986167153 0.875 0.125
1 0.875 0.125
0 1 0.125
0.05430190040175393 1 0.125
0.21633893743879093 1 0.125
0.35817299308357653 1 0.125
0.48653839446686126 1 0.125
0.614903795850146 1 0.125
0.7432691972334307 1 0.125
0.8716345986167153 1 0.125
1 1 0.125
0 0 0.25
0.05430190040175393 0 0.25
0.21633893743879093 0 0.25
0.35817299308357653 0 0.25
0.48653839446686126 0 0.25
0.614903795850146 0 0.25
0.7432691972334307 0 0.25
0.8716345986167153 0 0.25
1 0 0.25
0 0.125 0.25
0.05430190040175393 0.125 0.25
0.21633893743879093 0.125 0.25
0.35817299308357653 0.125 0.25
0.48653839446686126 0.125 0.25
0.614903795850146 0.125 0.25
0.7432691972334307 0.125 0.25
0.8716345986167153 0.125 0.25
1 0.125 0.25
0 0.25 0.25
0.05430190040175393 0.25 0.25
0.21633893743879093 0.25 0.25
0.35817299308357653 0.25 0.25
0.48653839446686126 0.25 0.25
0.614903795850146 0.25 0.25
0.7432691972334307 0.25 0.25
0.8716345986167153 0.25 0.25
1 0.25 0.25
0 0.375 0.25
0.05430190040175393 0.375 0.25
0.21633893743879093 0.375 0.25
0.35817299308357653 0.375 0.25
0.48653839446686126 0.375 0.25
0.614903795850146 0.375 0.25
0.7432691972334307 0.375 0.25
0.8716345986167153 0.375 0.25
1 0.375 0.25
0 0.5 0.25
0.05430190040175393 0.5 0.25
0.21633893743879093 0.5 0.25
0.35817299308357653 0.5 0.25
0.48653839446686126 0.5 0.25
0.614903795850146 0.5 0.25
0.7432691972334307 0.5 0.25
0.8716345986167153 0.5 0.25
1 0.5 0.25
0 0.625 0.25
0.05430190040175393 0.625 0.25
0.21633893743879093 0.625 0.25
0.35817299308357653 0.625 0.25
0.48653839446686126 0.625 0.25
0.614903795850146 0.625 0.25
0.7432691972334307 0.625 0.25
0.8716345986167153 0.625 0.25
1 0.625 0.25
0 0.75 0.25
0.05430190040175393 0.75 0.25
0.21633893743879093 0.75 0.25
0.35817299308357653 0.75 0.25
0.48653839446686126 0.75 0.25
0.614903795850146 0.75 0.25
0.7432691972334307 0.75 0.25
0.8716345986167153 0.75 0.25
1 0.75 0.25
0 0.875 0.25
0.05430190040175393 0.875 0.25
0.21633893743879093 0.875 0.25
0.35817299308357653 0.875 0.25
0.48653839446686126 0.875 0.25
0.614903795850146 0.875 0.25
0.7432691972334307 0.875 0.25
0.8716345986167153 0.875 0.25
1 0.875 0.25
0 1 0.25
0.05430190040175393 1 0.25
0.21633893743879093 1 0.25
0.35817299308357653 1 0.25
0.48653839446686126 1 0.25
0.614903795850146 1 0.25
0.7432691972334307 1 0.25
0.8716345986167153 1 0.25
1 1 0.25
0 0 0.375
0.05430190040175393 0 0.375
0.21633893743879093 0 0.375
0.35817299308357653 0 0.375
0.48653839446686126 0 0.375
0.614903795850146 0 0.375
0.7432691972334307 0 0.375
0.8716345986167153 0 0.375
1 0 0.375
0 0.125 0.375
0.05430190040175393 0.125 0.375
0.21633893743879093 0.125 0.375
0.35817299308357653 0.125 0.375
0.48653839446686126 0.125 0.375
0.614903795850146 0.125 0.375
0.7432691972334307 0.125 0.375
0.8716345986167153 0.125 0.375
1 0.125 0.375
0 0.25 0.375
0.05430190040175393 0.25 0.375
0.21633893743879093 0.25 0.375
0.35817299308357653 0.25 0.375
0.48653839446686126 0.25 0.375
0.614903795850146 0.25 0.375
0.7432691972334307 0.25 0.375
0.8716345986167153 0.25 0.375
1 0.25 0.375
0 0.375 0.375
0.05430190040175393 0.375 0.375
0.21633893743879093 0.375 0.375
0.35817299308357653 0.375 0.375
0.48653839446686126 0.375 0.375
0.614903795850146 0.375 0.375
0.7432691972334307 0.375 0.375
0.8716345986167153 0.375 0.375
1 0.375 0.375
0 0.5 0.375
0.05430190040175393 0.5 0.375
0.21633893743879093 0.5 0.375
0.35817299308357653 0.5 0.375
0.48653839446686126 0.5 0.375
0.614903795850146 0.5 0.375
0.7432691972334307 0.5 0.375
0.8716345986167153 0.5 0.375
1 0.5 0.375
0 0.625 0.375
0.05430190040175393 0.625 0.375
0.21633893743879093 0.625 0.375
0.35817299308357653 0.625 0.375
0.48653839446686126 0.625 0.375
0.614903795850146 0.625 0.375
0.7432691972334307 0.625 0.375
0.8716345986167153 0.625 0.375
1 0.625 0.375
0 0.75 0.375
0.05430190040175393 0.75 0.375
0.21633893743879093 0.75 0.375
0.35817299308357653 0.75 0.375
0.48653839446686126 0.75 0.375
0.614903795850146 0.75 0.375
0.7432691972334307 0.75 0.375
0.8716345986167153 0.75 0.375
1 0.75 0.375
0 0.875 0.375
0.05430190040175393 0.875 0.375
0.21633893743879093 0.875 0.375
0.35817299308357653 0.875 0.375
0.48653839446686126 0.875 0.375
0.614903795850146 0.875 0.375
0.7432691972334307 0.875 0.375
0.8716345986167153 0.875 0.375
1 0.875 0.375
0 1 0.375
0.05430190040175393 1 0.375
0.21633893743879093 1 0.375
0.35817299308357653 1 0.375
0.48653839446686126 1 0.375
0.614903795850146 1 0.375
0.7432691972334307 1 0.375
0.8716345986167153 1 0.375
1 1 0.375
0 0 0.5
0.05430190040175393 0 0.5
0.21633893743879093 0 0.5
0.35817299308357653 0 0.5
0.48653839446686126 0 0.5
0.614903795850146 0 0.5
0.7432691972334307 0 0.5
0.8716345986167153 0 0.5
1 0 0.5
0 0.125 0.5
0.05430190040175393 0.125 0.5
0.21633893743879093 0.125 0.5
0.35817299308357653 0.125 0.5
0.48653839446686126 0.125 0.5
0.614903795850146 0.125 0.5
0.7432691972334307 0.125 0.5
0.8716345986167153 0.125 0.5
1 0.125 0.5
0 0.25 0.5
0.05430190040175393 0.25 0.5
0.21633893743879093 0.25 0.5
0.35817299308357653 0.25 0.5
0.48653839446686126 0.25 0.5
0.614903795850146 0.25 0.5
0.7432691972334307 0.25 0.5
0.8716345986167153 0.25 0.5
1 0.25 0.5
0 0.375 0.5
0.05430190040175393 0.375 0.5
0.21633893743879093 0.375 0.5
0.35817299308357653 0.375 0.5
0.48653839446686126 0.375 0.5
0.614903795850146 0.375 0.5
0.7432691972334307 0.375 0.5
0.8716345986167153 0.375 0.5
1 0.375 0.5
0 0.5 0.5
0.05430190040175393 0.5 0.5
0.21633893743879093 0.5 0.5
0.35817299308357653 0.5 0.5
0.48653839446686126 0.5 0.5
0.614903795850146 0.5 0.5
0.7432691972334307 0.5 0.5
0.8716345986167153 0.5 0.5
1 0.5 0.5
0 0.625 0.5
0.05430190040175393 0.625 0.5
0.21633893743879093 0.625 0.5
0.35817299308357653 0.625 0.5
0.48653839446686126 0.625 0.5
0.614903795850146 0.625 0.5
0.7432691972334307 0.625 0.5
0.8716345986167153 0.625 0.5
1 0.625 0.5
0 0.75 0.5
0.05430190040175393 0.75 0.5
0.21633893743879093 0.75 0.5
0.35817299308357653 0.75 0.5
0.48653839446686126 0.75 0.5
0.614903795850146 0.75 0.5
0.7432691972334307 0.75 0.5
0.8716345986167153 0.75 0.5
1 0.75 0.5
0 0.875 0.5
0.05430190040175393 0.875 0.5
0.21633893743879093 0.875 0.5
0.35817299308357653 0.875 0.5
0.48653839446686126 0.875 0.5
0.614903795850146 0.875 0.5
0.7432691972334307 0.875 0.5
0.8716345986167153 0.875 0.5
1 0.875 0.5
0 1 0.5
0.05430190040175393 1 0.5
0.21633893743879093 1 0.5
0.35817299308357653 1 0.5
0.48653839446686126 1 0.5
0.614903795850146 1 0.5
0.7432691972334307 1 0.5
0.8716345986167153 1 0.5
1 1 0.5
0 0 0.625
0.05430190040175393 0 0.625
0.21633893743879093 0 0.625
0.35817299308357653 0 0.625
0.48653839446686126 0 0.625
0.614903795850146 0 0.625
0.7432691972334307 0 0.625
0.8716345986167153 0 0.625
1 0 0.625
0 0.125 0.625
0.05430190040175393 0.125 0.625
0.21633893743879093 0.125 0.625
0.35817299308357653 0.125 0.625
0.48653839446686126 0.125 0.625
0.614903795850146 0.125 0.625
0.7432691972334307 0.125 0.625
0.8716345986167153 0.125 0.625
1 0.125 0.625
0 0.25 0.625
0.05430190040175393 0.25 0.625
0.21633893743879093 0.25 0.625
0.35817299308357653 0.25 0.625
0.48653839446686126 0.25 0.625
0.614903795850146 0.25 0.625
0.7432691972334307 0.25 0.625
0.8716345986167153 0.25 0.625
1 0.25 0.625
0 0.375 0.625
0.05430190040175393 0.375 0.625
0.21633893743879093 0.375 0.625
0.35817299308357653 0.375 0.625
0.48653839446686126 0.375 0.625
0.614903795850146 0.375 0.625
0.7432691972334307 0.375 0.625
0.8716345986167153 0.375 0.625
1 0.375 0.625
0 0.5 0.625
0.05430190040175393 0.5 0.625
0.21633893743879093 0.5 0.625
0.35817299308357653 0.5 0.625
0.48653839446686126 0.5 0.625
0.614903795850146 0.5 0.625
0.7432691972334307 0.5 0.625
0.8716345986167153 0.5 0.625
1 0.5 0.625
0 0.625 0.625
0.05430190040175393 0.625 0.625
0.21633893743879093 0.625 0.625
0.35817299308357653 0.625 0.625
0.48653839446686126 0.625 0.625
0.614903795850146 0.625 0.625
0.7432691972334307 0.625 0.625
0.8716345986167153 0.625 0.625
1 0.625 0.625
0 0.75 0.625
0.05430190040175393 0.75 0.625
0.21633893743879093 0.75 0.625
0.35817299308357653 0.75 0.625
0.48653839446686126 0.75 0.625
0.614903795850146 0.75 0.625
0.7432691972334307 0.75 0.625
0.8716345986167153 0.75 0.625
1 0.75 0.625
0 0.875 0.625
0.05430190040175393 0.875 0.625
0.21633893743879093 0.875 0.625
0.35817299308357653 0.875 0.625
0.48653839446686126 0.875 0.625
0.614903795850146 0.875 0.625
0.7432691972334307 0.875 0.625
0.8716345986167153 0.875 0.625
1 0.875 0.625
0 1 0.625
0.05430190040175393 1 0.625
0.21633893743879093 1 0.625
0.35817299308357653 1 0.625
0.48653839446686126 1 0.625
0.614903795850146 1 0.625
0.7432691972334307 1 0.625
0.8716345986167153 1 0.625
1 1 0.625
0 0 0.75
0.05430190040175393 0 0.75
0.21633893743879093 0 0.75
0.35817299308357653 0 0.75
0.48653839446686126 0 0.75
0.614903795850146 0 0.75
0.7432691972334307 0 0.75
0.8716345986167153 0 0.75
1 0 0.75
0 0.125 0.75
0.05430190040175393 0.125 0.75
0.21633893743879093 0.125 0.75
0.35817299308357653 0.125 0.75
0.48653839446686126 0.125 0.75
0.614903795850146 0.125 0.75
0.7432691972334307 0.125 0.75
0.8716345986167153 0.125 0.75
1 0.125 0.75
0 0.25 0.75
0.05430190040175393 0.25 0.75
0.21633893743879093 0.25 0.75
0.35817299308357653 0.25 0.75
0.48653839446686126 0.25 0.75
0.614903795850146 0.25 0.75
0.7432691972334307 0.25 0.75
0.8716345986167153 0.25 0.75
1 0.25 0.75
0 0.375 0.75
0.05430190040175393 0.375 0.75
0.21633893743879093 0.375 0.75
0.35817299308357653 0.375 0.75
0.48653839446686126 0.375 0.75
0.614903795850146 0.375 0.75
0.7432691972334307 0.375 0.75
0.8716345986167153 0.375 0.75
1 0.375 0.75
0 0.5 0.75
0.05430190040175393 0.5 0.75
0.21633893743879093 0.5 0.75
0.35817299308357653 0.5 0.75
0.48653839446686126 0.5 0.75
0.614903795850146 0.5 0.75
0.7432691972334307 0.5 0.75
0.8716345986167153 0.5 0.75
1 0.5 0.75
0 0.625 0.75
0.05430190040175393 0.625 0.75
0.21633893743879093 0.625 0.75
0.35817299308357653 0.625 0.75
0.48653839446686126 0.625 0.75
0.614903795850146 0.625 0.75
0.7432691972334307 0.625 0.75
0.8716345986167153 0.625 0.75
1 0.625 0.75
0 0.75 0.75
0.05430190040175393 0.75 0.75
0.21633893743879093 0.75 0.75
0.35817299308357653 0.75 0.75
0.48653839446686126 0.75 0.75
0.614903795850146 0.75 0.75
0.7432691972334307 0.75 0.75
0.8716345986167153 0.75 0.75
1 0.75 0.75
0 0.875 0.75
0.05430190040175393 0.875 0.75
0.21633893743879093 0.875 0.75
0.35817299308357653 0.875 0.75
0.48653839446686126 0.875 0.75
0.614903795850146 0.875 0.75
0.7432691972334307 0.875 0.75
0.8716345986167153 0.875 0.75
1 0.875 0.75
0 1 0.75
0.05430190040175393 1 0.75
0.21633893743879093 1 0.75
0.35817299308357653 1 0.75
0.48653839446686126 1 0.75
0.614903795850146 1 0.75
0.7432691972334307 1 0.75
0.8716345986167153 1 0.75
1 1 0.75
0 0 0.875
0.05430190040175393 0 0.875
0.21633893743879093 0 0.875
0.35817299308357653 0 0.875
0.48653839446686126 0 0.875
0.614903795850146 0 0.875
0.7432691972334307 0 0.875
0.8716345986167153 0 0.875
1 0 0.875
0 0.125 0.875
0.05430190040175393 0.125 0.875
0.21633893743879093 0.125 0.875
0.35817299308357653 0.125 0.875
0.48653839446686126 0.125 0.875
0.614903795850146 0.125 0.875
0.7432691972334307 0.125 0.875
0.8716345986167153 0.125 0.875
1 0.125 0.875
0 0.25 0.875
0.05430190040175393 0.25 0.875
0.21633893743879093 0.25 0.875
0.35817299308357653 0.25 0.875
0.48653839446686126 0.25 0.875
0.614903795850146 0.25 0.875
0.7432691972334307 0.25 0.875
0.8716345986167153 0.25 0.875
1 0.25 0.875
0 0.375 0.875
0.05430190040175393 0.375 0.875
0.21633893743879093 0.375 0.875
0.35817299308357653 0.375 0.875
0.48653839446686126 0.375 0.875
0.614903795850146 0.375 0.875
0.7432691972334307 0.375 0.875
0.8716345986167153 0.375 0.875
1 0.375 0.875
0 0.5 0.875
0.05430190040175393 0.5 0.875
0.21633893743879093 0.5 0.875
0.35817299308357653 0.5 0.875
0.48653839446686126 0.5 0.875
0.614903795850146 0.5 0.875
0.7432691972334307 0.5 0.875
0.8716345986167153 0.5 0.875
1 0.5 0.875
0 0.625 0.875
0.05430190040175393 0.625 0.875
0.21633893743879093 0.625 0.875
0.35817299308357653 0.625 0.875
0.48653839446686126 0.625 0.875
0.614903795850146 0.625 0.875
0.7432691972334307 0.625 0.875
0.8716345986167153 0.625 0.875
1 0.625 0.875
0 0.75 0.875
0.05430190040175393 0.75 0.875
0.21633893743879093 0.75 0.875
0.35817299308357653 0.75 0.875
0.48653839446686126 0.75 0.875
0.614903795850146 0.75 0.875
0.7432691972334307 0.75 0.875
0.8716345986167153 0.75 0.875
1 0.75 0.875
0 0.875 0.875
0.05430190040175393 0.875 0.875
0.21633893743879093 0.875 0.875
0.35817299308357653 0.875 0.875
0.48653839446686126 0.875 0.875
0.614903795850146 0.875 0.875
0.7432691972334307 0.875 0.875
0.8716345986167153 0.875 0.875
1 0.875 0.875
0 1 0.875
0.05430190040175393 1 0.875
0.21633893743879093 1 0.875
0.35817299308357653 1 0.875
0.48653839446686126 1 0.875
0.614903795850146 1 0.875
0.7432691972334307 1 0.875
0.8716345986167153 1 0.875
1 1 0.875
0 0 1
0.05430190040175393 0 1
0.21633893743879093 0 1
0.35817299308357653 0 1
0.48653839446686126 0 1
0.614903795850146 0 1
0.7432691972334307 0 1
0.8716345986167153 0 1
1 0 1
0 0.125 1
0.05430190040175393 0.125 1
0.21633893743879093 0.125 1
0.35817299308357653 0.125 1
0.48653839446686126 0.125 1
0.614903795850146 0.125 1
0.7432691972334307 0.125 1
0.8716345986167153 0.125 1
1 0.125 1
0 0.25 1
0.05430190040175393 0.25 1
0.21633893743879093 0.25 1
0.35817299308357653 0.25 1
0.48653839446686126 0.25 1
0.614903795850146 0.25 1
0.7432691972334307 0.25 1
0.8716345986167153 0.25 1
1 0.25 1
0 0.375 1
0.05430190040175393 0.375 1
0.21633893743879093 0.375 1
0.35817299308357653 0.375 1
0.48653839446686126 0.375 1
0.614903795850146 0.375 1
0.7432691972334307 0.375 1
0.8716345986167153 0.375 1
1 0.375 1
0 0.5 1
0.05430190040175393 0.5 1
0.21633893743879093 0.5 1
0.35817299308357653 0.5 1
0.48653839446686126 0.5 1
0.614903795850146 0.5 1
0.7432691972334307 0.5 1
0.8716345986167153 0.5 1
1 0.5 1
0 0.625 1
0.05430190040175393 0.625 1
0.21633893743879093 0.625 1
0.35817299308357653 0.625 1
0.48653839446686126 0.625 1
0.614903795850146 0.625 1
0.7432691972334307 0.625 1
0.8716345986167153 0.625 1
1 0.625 1
0 0.75 1
0.05430190040175393 0.75 1
0.21633893743879093 0.75 1
0.35817299308357653 0.75 1
0.48653839446686126 0.75 1
0.614903795850146 0.75 1
0.7432691972334307 0.75 1
0.8716345986167153 0.75 1
1 0.75 1
0 0.875 1
0.05430190040175393 0.875 1
0.21633893743879093 0.875 1
0.35817299308357653 0.875 1
0.48653839446686126 0.875 1
0.614903795850146 0.875 1
0.7432691972334307 0.875 1
0.8716345986167153 0.875 1
1 0.875 1
0 1 1
0.05430190040175393 1 1
0.21633893743879093 1 1
0.35817299308357653 1 1
0.48653839446686126 1 1
0.614903795850146 1 1
0.7432691972334307 1 1
0.8716345986167153 1 1
1 1 1
