GTG Channel Separator LUT.cube
LUT_3D_SIZE 17
0 0 0
0.06400952980140535 0 0
0.1341023063770984 0 0
0.21130855966702475 0 0
0.2967163610770448 0 0
0.3914577937037962 0 0
0.4966796343814927 0 0
0.6134871089622741 0 0
0.7428353899010246 0 0
0.8853081685043344 0 0
1 0 0
1 0 0
1 0 0
1 0 0
1 0 0
1 0 0
1 0 0
0 0.06181588679344473 0
0.05467971505894548 0.05467971505894548 0
0.12394337985516518 0.04444209863214911 0
0.20023690932179267 0.030715831775279596 0
0.28464529181367554 0.012935824695990555 0
0.378307056690332 0 0
0.48239081937165323 0 0
0.598049036800334 0 0
0.7263275989857843 0 0
0.8679789972627749 0 0
1 0 0
1 0 0
1 0 0
1 0 0
1 0 0
1 0 0
1 0 0
0 0.12449026537413407 0
0.044615449007706115 0.11987806819921099 0
0.1125489372942586 0.1125489372942586 0
0.18728728434021458 0.10208289110879948 0
0.2698753839348298 0.08794657265150471 0
0.3614117532521644 0.06957552713723629 0
0.46303041763290764 0.04638120035789532 0
0.5758657265682096 0.017765533593273403 0
0.70098543953556 0 0
0.8392563591847552 0 0
0.9910464307078835 0 0
1 0 0
1 0 0
1 0 0
1 0 0
1 0 0
1 0 0
0 0.1877537773658602 0
0.03427273730936396 0.1854527853855224 0
0.10076965109685496 0.1810216164848952 0
0.17380368882436603 0.17380368882436603 0
0.2543630736006276 0.16330231338006002 0
0.34348202764203284 0.14899212548124185 0
0.44222340743795463 0.13032463195156793 0
0.5516463602738391 0.10673983415665396 0
0.6727474194436244 0.07768824495342647 0
0.8063481132069673 0.04267329200250189 0
0.9528604438099016 0.0013396846145956876 0
1 0 0
1 0 0
1 0 0
1 0 0
1 0 0
1 0 0
0 0.25135268642706293 0
0.02381612241839169 0.2511058795233765 0
0.08881549506080695 0.24949792361894796 0
0.1600570736109325 0.24543678287239346 0
0.23846230498876908 0.23846230498876908 0
0.3249866198050841 0.22808927655768763 0
0.42060042712387646 0.21381247915202323 0
0.526255476653912 0.19511710794411938 0
0.6428263945653911 0.171497861469774 0
0.7710054094345186 0.1424938043600596 0
0.9110995071946885 0.1077555547303273 0
1 0.0671854942219407 0
1 0.02279217497776448 0
1 0 0
1 0 0
1 0 0
1 0 0
0 0.3150605394417788 0
0.013387998450679381 0.3165840959688474 0
0.07686873630460234 0.31767503065919594 0
0.1462835525738544 0.31661926260970397 0
0.22248284701108706 0.31298969642634117 0
0.3063375438777347 0.3063375438777347 0
0.3987179554473352 0.296197001002079 0
0.500458192249429 0.2820947154698485 0
0.6122972304870984 0.2635665818993089 0
0.7347791606796271 0.24018686366898023 0
0.8680770029977118 0.21162008315109493 0
1 0.17771791194291575 0
1 0.1398914876627868 0
1 0.09978330265780502 0
1 0.05751035672253235 0
1 0.015222685388204482 0
1 0 0
0 0.37868617506343655 0
0.0031045623266639094 0.3816853337538794 0
0.06507829254726297 0.38531676301749507 0
0.13267623410556606 0.3870750086179484 0
0.20667804348290786 0.38656094931994534 0
0.287871088987121 0.3833563157076172 0
0.3770278282572611 0.3770278282572611 0
0.47486946763824645 0.3671355328056747 0
0.582008701269634 0.3532472116911387 0
0.6988587750560951 0.3349622667827547 0
0.8254863009927026 0.311951450591611 0
0.9613706773933074 0.28402428461095647 0
1 0.2521356994158605 0
1 0.21767516588842667 0
1 0.18028382466381446 0
1 0.14129581875857966 0
1 0.10414692745486168 0
0 0.44207803987559136 0
0 0.4462602528537086 0
0.05355778924351064 0.45225430521183063 0
0.11938245533212502 0.456613876104109 0
0.19124074387728224 0.4589624929378348 0
0.26984174058696153 0.4589062595155352 0
0.355868198769202 0.4560373440441712 0
0.449941107957161 0.449941107957161 0
0.552566541692809 0.44020824657828395 0
0.664056351020568 0.42645423624788753 0
0.784409960983251 0.40835000976358216 0
0.913140934381865 0.3856703416238453 0
1 0.35902462451134776 0
1 0.32963146605036775 0
1 0.29694316361111506 0
1 0.26270139229683587 0
1 0.22827026048990443 0
0 0.5051252272674298 0
0 0.5102100789301383 0
0.04238658055907134 0.518381950473082 0
0.10650528171835039 0.5251243798070818 0
0.17630557059682758 0.5300788110089846 0
0.25242583795532547 0.5328704330474725 0
0.33546999107630265 0.5331110385891829 0
0.4259742902588629 0.5304050697095396 0
0.5243598722331128 0.5243598722331128 0
0.6308659324011863 0.5146017570653738 0
0.7454573091412722 0.5008003858760458 0
0.8677011186384544 0.48270524404004084 0
0.9936456406785075 0.4606671043748691 0
1 0.4357689320554481 0
1 0.40654585558191153 0
1 0.37575047258950445 0
1 0.3440747697547425 0
0 0.5677559358697317 0
0 0.5734818141007667 0
0.03161280632210853 0.5836497098151532 0
0.09410784279685476 0.5925626285312122 0
0.16195522820200356 0.5998761627539085 0
0.23573109850274507 0.60523056027981 0
0.31597194640088755 0.608253067876418 0
0.4031445498753774 0.6085631240885749 0
0.49760474244438724 0.6057811911246642 0
0.5995423860446558 0.5995423860446558 0
0.7089101311209469 0.5895166004873649 0
0.8253357547838712 0.5754373955827328 0
0.9454353408202525 0.5574055259761446 0
1 0.5330617199989515 0
1 0.5070265254579798 0
1 0.47945661561816055 0
1 0.45069388800318166 0
0 0.629934147855675 0
0 0.6360620100558679 0
0.02125758770455552 0.6480544247687491 0
0.08221915782735598 0.6589398488517313 0
0.14822876871101487 0.6683852655354873 0
0.2198086641840244 0.6760431881765497 0
0.2974387178960375 0.6815536317575884 0
0.3815297910812552 0.6845486872630171 0
0.4723886016760774 0.6846603268074667 0
0.5701729987341828 0.6815323031353606 0
0.6748372989502851 0.6748372989502851 0
0.7857144872132141 0.6640412716244775 0
0.8886986059698665 0.6430874252972067 0
0.9874270519898707 0.6215990518602756 0
1 0.59851889472882 0
1 0.5739117196472625 0
1 0.5479803261571959 0
0 0.6916552891726472 0
0 0.6979700558263181 0
0.01131962738001216 0.7116306559005219 0
0.0708403920653358 0.7243101790452638 0
0.13513025175924936 0.7356851212449765 0
0.20466532925868403 0.7454184698553266 0
0.27987848101884505 0.7531614288953166 0
0.36113607527915675 0.7585575578895595 0
0.4487084126168056 0.7612498264881786 0
0.5427335947752109 0.7608912273267017 0
0.642908673397551 0.7567945661326512 0
0.7395052018857171 0.7395052018857171 0
0.8370388734748437 0.7209583228558083 0
0.9300941015796889 0.7019451643520375 0
1 0.6814585160922444 0
1 0.6595086433964443 0
1 0.6362097532574834 0
0 0.7499646723257102 0
0 0.7564411485325416 0
0.0020746579253320963 0.771770323589916 0
0.06026718493577746 0.7862324193321711 0
0.12297529290005965 0.7995128327431286 0
0.19063498878664326 0.8112845951820864 0
0.2636389247471975 0.8212099606440523 0
0.3423163088041059 0.8289442501061887 0
0.4269081183938241 0.8341423472985758 0
0.517474021378908 0.8362935831177664 0
0.6069245013637523 0.8222843861131812 0
0.6984291531814549 0.8071538734725889 0
0.7908611609384297 0.7908611609384297 0
0.8785780358870704 0.7741824115193225 0
0.9671011947543908 0.7561661885159833 0
1 0.7367923751282563 0
1 0.7158987836579858 0
0 0.8062759695971814 0
0 0.8125376699704386 0
0 0.829179413153662 0
0.050402046676858825 0.8450422668410018 0
0.1117095972356563 0.8598186144376355 0
0.1777223430720986 0.8731895667601357 0
0.24880353296587787 0.8848264458471793 0
0.3252569328261831 0.894394387321604 0
0.4073058985152107 0.9015583705315515 0
0.4911223098543114 0.8910036337167826 0
0.5765729224360263 0.8784276342253832 0
0.6637631065368754 0.8648480729926094 0
0.7519254664835857 0.850178610117363 0
0.8351860124862142 0.8351860124862142 0
0.9191511295797257 0.8189681124501706 0
1 0.8014882160298944 0
1 0.782772443743087 0
0 0.8622991145201439 0
0 0.8682087601128015 0
0 0.8860763034408665 0
0.04089353134004062 0.9032438506984168 0
0.10089029210770178 0.9194104251537097 0
0.1653692548932568 0.9342649377895522 0
0.2346692576188264 0.9474875871650377 0
0.30907378181224077 0.9587532447631959 0
0.3877108350759091 0.9517111568966159 0
0.46793971166414133 0.9410872765980217 0
0.5496827060763291 0.9297350349666722 0
0.6328889219385745 0.9174830272111967 0
0.717114012888143 0.9042111335642422 0
0.7962699289766977 0.8906766126082264 0
0.8760249509794928 0.8760249509794928 0
0.955953531464041 0.8602107944388216 0
1 0.843239306651747 0
0 0.9180927735165441 0
0 0.9235272666230591 0
0 0.9425493306415604 0
0.03169583430639478 0.9609432731250959 0
0.09046456327996433 0.9784145671565196 0
0.15351386546014378 0.9946597620338506 0
0.22116235786759916 1 0
0.29493807133989425 1 0
0.3707323050947543 0.9966087825365735 0
0.4477782685785875 0.9869498118795401 0
0.5260937993285171 0.9766399845733711 0
0.605630425019635 0.9655222289375591 0
0.6862353368812936 0.9534514618525991 0
0.7616217394947931 0.9411758882947856 0
0.8375038331668292 0.9278855692451772 0
0.9135316183794407 0.9135316183794407 0
0.9892702491070348 0.8981063114799965 0
0 0.9907408251177727 0
0 0.9923107543010794 0
0 1 0
0.021952374255482743 1 0
0.07989718526610046 1 0
0.14205498282931053 1 0
0.21125327263385232 1 0
0.2833155479921339 1 0
0.35636861692090904 1 0
0.4304672232118533 1 0
0.505621488691585 1 0
0.5817852894680005 1 0
0.6588439337871661 0.9984210493513652 0
0.7310034000560189 0.9872035118362612 0
0.8033345172158521 0.9750955878709884 0
0.8757730578894916 0.9620195646852694 0
0.9479602614476843 0.9479602614476843 0
0 0 0.06181588679344473
0.05467971505894548 0 0.05467971505894548
0.12394337985516518 0 0.04444209863214911
0.20023690932179267 0 0.030715831775279596
0.28464529181367554 0 0.012935824695990555
0.378307056690332 0 0
0.48239081937165323 0 0
0.598049036800334 0 0
0.7263275989857843 0 0
0.8679789972627749 0 0
1 0 0
1 0 0
1 0 0
1 0 0
1 0 0
1 0 0
1 0 0
0 0.05367431548398875 0.05367431548398875
0.045569198568610254 0.045569198568610254 0.045569198568610254
0.11413603032959249 0.03407038197242426 0.03407038197242426
0.18967058324172775 0.01908770480066177 0.01908770480066177
0.2732567210933008 0.00007923515918038804 0.00007923515918038804
0.3660405175773398 0 0
0.4692117560407127 0 0
0.5839660340908368 0 0
0.7114293543868669 0 0
0.8525001050187742 0 0
1 0 0
1 0 0
1 0 0
1 0 0
1 0 0
1 0 0
1 0 0
0 0.11689592025148182 0.044742611820906
0.0354755747092802 0.11132564485588062 0.0354755747092802
0.10279732309221096 0.10279732309221096 0.02225134665862937
0.17688303384283954 0.09113839713722051 0.005393760431601474
0.2587800254237946 0.0758377509073498 0
0.34959794052749243 0.0563521263702373 0
0.45049515904789006 0.032111741258477655 0
0.5626511191590677 0.0025323137994765488 0
0.6872126923774023 0 0
0.8251851872725033 0 0
0.9771857074875226 0 0
1 0 0
1 0 0
1 0 0
1 0 0
1 0 0
1 0 0
0 0.18076160582157302 0.035401386029052975
0.025165707396938387 0.17751457804917453 0.025165707396938387
0.09113839713722051 0.1719587811240741 0.010318013150366942
0.16362703382994512 0.16362703382994512 0
0.24362512788675658 0.15204467910890967 0
0.33218061512493446 0.1367075957058308 0
0.43038239842609544 0.11708669482902652 0
0.5393342504023024 0.09263762362142465 0
0.6601064809563819 0.06281937260395581 0
0.7936426300478255 0.027130497725735586 0
0.9405609316838168 0 0
1 0 0
1 0 0
1 0 0
1 0 0
1 0 0
1 0 0
0 0.24500304630977374 0.02579590196072319
0.014796816033556287 0.24382155934454894 0.014796816033556287
0.07935927352835925 0.24117241231874725 0
0.15016023003381843 0.23608733158639153 0
0.22812836604543202 0.22812836604543202 0
0.31423412435938164 0.21683204688097313 0
0.40947379818346935 0.201713738098985 0
0.5148405469119335 0.18227679427444102 0
0.6312731812194868 0.15802955857711326 0
0.7595625490834417 0.12851683089506424 0
0.9001671825559828 0.09338175490046491 0
1 0.05249956702932146 0
1 0.00775612932653294 0
1 0 0
1 0 0
1 0 0
1 0 0
0 0.30937788342502276 0.01605938146794636
0.004504509454882427 0.3099753710705069 0.004504509454882427
0.0676334499395009 0.31011330803506987 0
0.1367075957058308 0.3081290630063115 0
0.21258557383792437 0.30361794175175977 0
0.2961533573112509 0.2961533573112509 0
0.3883053267997308 0.28529106053708597 0
0.48991169122233513 0.2705778181535671 0
0.6017636418646806 0.25156699817463113 0
0.7244789075530151 0.22784599284305135 0
0.8583311267279565 0.1990860541972046 0
1 0.16513802931067909 0
1 0.1273286189093136 0
1 0.08757011484504967 0
1 0.045920514844777605 0
1 0.004696801811199691 0
1 0 0
0 0.37367864029458087 0.006307833685397793
0 0.3757556560009255 0
0.05610246534813618 0.37852298677891455 0
0.12345339997872569 0.379448757228502 0
0.19723979826073423 0.37815621931571397 0
0.27826308485202533 0.3742493754296097 0
0.3673168097099391 0.3673168097099391 0
0.46515188904009486 0.3569394765887033 0
0.572420967933738 0.3427043178732801 0
0.6895885291157903 0.32422714450226126 0
0.8167822956328217 0.3011913690998707 0
0.9535434908855046 0.2734151914116616 0
1 0.24178442249544888 0
1 0.20790206208930034 0
1 0.17131801707446317 0
1 0.1334214432419482 0
1 0.09764576597108379 0
0 0.4377378747156916 0
0 0.4409955786745513 0
0.04487398065532269 0.44621153530549085 0
0.11053830811894566 0.4498308279146973 0
0.18227679427444102 0.45149897353205215 0
0.26081087038562323 0.45084390015055964 0
0.34684078199929946 0.4474791735086383 0
0.44101065963836245 0.44101065963836245 0
0.5438553662494805 0.4310480010431459 0
0.6557199268695727 0.41722324588110393 0
0.7766372206795918 0.3992206987286442 0
0.9061445582801049 0.3768248719838993 0
1 0.3505836577671091 0
1 0.32188146570232323 0
1 0.29008225208724225 0
1 0.25697244553238924 0
1 0.22378338285015426 0
0 0.5014298890023461 0
0 0.5055804103440957 0
0.034022715418971256 0.5130543610163302 0
0.09806061247636899 0.5191415214667292 0
0.1678267044183186 0.5235045769662288 0
0.24396959524909523 0.5257896126093213 0
0.3271068981300926 0.5256287087041753 0
0.4177918536895985 0.5226455304838047 0
0.5164649443615021 0.5164649443615021 0
0.6233848570533632 0.5067283018394628 0
0.7385315429023045 0.4931170236471558 0
0.8614746705941725 0.4753885074225619 0
0.9886522253167976 0.4538386346123906 0
1 0.42967719969844986 0
1 0.4014566357545921 0
1 0.371755764487343 0
1 0.3405335543420317 0
0 0.5646696433320617 0
0 0.5694432106410182 0
0.023593373572235427 0.578985346029955 0
0.08608026571377887 0.5873184420896739 0
0.15396979410491868 0.5941182882193876 0
0.2278459928430513 0.5990447521136956 0
0.3082553846302121 0.6017438498195201 0
0.3956762698934062 0.6018524869003281 0
0.4904761833497836 0.5990066793188447 0
0.5928544658295932 0.5928544658295932 0
0.7027670258493075 0.5830753152317357 0
0.8198326743531031 0.5694085321666875 0
0.9407323936120888 0.551799922576682 0
1 0.5284687515815158 0
1 0.5034493859933896 0
1 0.476298989335963 0
1 0.44744955960055705 0
0 0.6274096671589092 0
0 0.6325587846843606 0
0.013604700467428427 0.6439881061698833 0
0.07462442846558504 0.6543581208548888 0
0.140744236911333 0.6633547725016424 0
0.2124919397488711 0.6706487290046246 0
0.29035404514068036 0.675897084163347 0
0.3747482703633423 0.6787475072183843 0
0.4659870030539797 0.6788454975973173 0
0.56423036705556 0.6758456713119136 0
0.6694283509293101 0.6694283509293101 0
0.7806876184842959 0.6589112105803449 0
0.8852274438428691 0.6388906212734644 0
0.9852119938478623 0.6183729980158169 0
1 0.5956965845371204 0
1 0.5710286129737749 0
1 0.5450270561613784 0
0 0.6896357568779339 0
0 0.6949369242476168 0
0.004053957995193647 0.7080867272170266 0
0.06369349686566464 0.7203034807752112 0
0.12815440969061687 0.7312813187359655 0
0.19791615700856866 0.7406998709305734 0
0.2734151914116616 0.7482257431602652 0
0.35502083275388935 0.7535162836700351 0
0.4430043555269594 0.7562261769334642 0
0.537500983012839 0.7560175760454062 0
0.6380418952680322 0.7519923099298658 0
0.7356849805444978 0.7356849805444978 0
0.8346652217782382 0.718033755963538 0
0.9283490942776282 0.6994162055881601 0
1 0.6788877407844643 0
1 0.6568898373527535 0
1 0.6335347105545687 0
0 0.7485607456057736 0
0 0.7539877418998668 0
0 0.7688536746884628 0
0.0535598330562867 0.7829001548055593 0
0.11648811512223345 0.7958289023386873 0
0.18441998991013836 0.8073281373145629 0
0.25774895595686725 0.8170739618327727 0
0.3368038534602534 0.8247338993690982 0
0.4218229043066866 0.8299730298876113 0
0.5127416138296934 0.8319579503350256 0
0.6030586956294955 0.8189318480079436 0
0.6955322674153164 0.8047427972772002 0
0.7888048140382034 0.7888048140382034 0
0.87668005559579 0.772103489876265 0
0.965390934877683 0.7540620587314324 0
1 0.7344427999978201 0
1 0.7134845954880955 0
0 0.8052070994775155 0
0 0.8103743169024952 0
0 0.826583910748348 0
0.04417996643637909 0.8420607958041437 0
0.10575566901192124 0.8565124856315215 0
0.1720850491637496 0.8696340176484734 0
0.24353000903315083 0.8811092795470572 0
0.3203914159357435 0.890614378376855 0
0.40288716547781067 0.8978234052022362 0
0.4873613437387406 0.887842697714943 0
0.5736400495495411 0.8762016639405705 0
0.6612981785304288 0.8630210395464821 0
0.7498768439515118 0.848296125370255 0
0.8332866337738352 0.8332866337738352 0
0.9174259093020316 0.8170497553844971 0
1 0.799546866901901 0
1 0.7808021351148935 0
0 0.861494353861248 0
0 0.8662575036810818 0
0 0.8837142139353104 0
0.03517307566972494 0.900514969354699 0
0.09548227634714754 0.9163728234123297 0
0.16031821790288134 0.9309894948181678 0
0.23001648577209555 0.9440566623668183 0
0.3048555578311043 0.9552591872862501 0
0.38406807373183044 0.9487193851284299 0
0.4649880403714635 0.9390275718215282 0
0.5471288182650511 0.9280725597491318 0
0.6304423795515521 0.9158095740503192 0
0.7150653674357168 0.9024907709063588 0
0.794361708830226 0.8889440085949543 0
0.8742784027620008 0.8742784027620008 0
0.9543909835480407 0.8584468700377615 0
1 0.8414527928803857 0
0 0.9174774696403659 0
0 0.9217069979654482 0
0 0.9403299723369289 0
0.026495276530194845 0.9583661870177655 0
0.0856178642209025 0.9755341556750745 0
0.14906135378118066 0.9915422692990803 0
0.21713945618903263 1 0
0.2914161401537669 1 0
0.36777080271917445 0.9946989499925258 0
0.44514921143361286 0.9854358892824935 0
0.5235551095283829 0.9751156505623666 0
0.6031960210988064 0.9639905135433349 0
0.6839442691866671 0.9519113160503112 0
0.7596995426041016 0.9395958693870788 0
0.8357317448690635 0.926295613335552 0
0.9119287396570672 0.9119287396570672 0
0.9878555316664446 0.896485916713383 0
0 0.9869559638131635 0
0 0.9872027995010307 0
0 1 0
0.017679882639388855 1 0
0.07607816451508428 1 0
0.13825125589764004 1 0
0.207848989535346 1 0
0.28034880354927305 1 0
0.3536738844431944 1 0
0.42785136539693935 1 0
0.5030940780298614 1 0
0.5793585826799812 1 0
0.656532868737846 0.9970152982966792 0
0.7290639519814469 0.9857609813132324 0
0.8015344193745865 0.9736462433476034 0
0.8741286817844645 0.9605607648178581 0
0.9464879224561332 0.9464879224561332 0
0 0 0.12449026537413407
0.044615449007706115 0 0.11987806819921099
0.1125489372942586 0 0.1125489372942586
0.18728728434021458 0 0.10208289110879948
0.2698753839348298 0 0.08794657265150471
0.3614117532521644 0 0.06957552713723629
0.46303041763290764 0 0.04638120035789532
0.5758657265682096 0 0.017765533593273403
0.70098543953556 0 0
0.8392563591847552 0 0
0.9910464307078835 0 0
1 0 0
1 0 0
1 0 0
1 0 0
1 0 0
1 0 0
0 0.044742611820906 0.11689592025148182
0.0354755747092802 0.0354755747092802 0.11132564485588062
0.10279732309221096 0.02225134665862937 0.10279732309221096
0.17688303384283954 0.005393760431601474 0.09113839713722051
0.2587800254237946 0 0.0758377509073498
0.34959794052749243 0 0.0563521263702373
0.45049515904789006 0 0.032111741258477655
0.5626511191590677 0 0.0025323137994765488
0.6872126923774023 0 0
0.8251851872725031 0 0
0.9771857074875226 0 0
1 0 0
1 0 0
1 0 0
1 0 0
1 0 0
1 0 0
0 0.10819535970024213 0.10819535970024213
0.02502031122483494 0.10141284080910817 0.10141284080910817
0.09113839713722051 0.09113839713722051 0.09113839713722051
0.16384099527961687 0.07757169735032744 0.07757169735032744
0.24414636176148025 0.06020361339370089 0.06020361339370089
0.33313740681435977 0.038492690151566256 0.038492690151566256
0.4319537079810916 0.011869138852505484 0.011869138852505484
0.5417750042525171 0 0
0.6637906893912016 0 0
0.7991417903862919 0 0
0.948796440551875 0 0
1 0 0
1 0 0
1 0 0
1 0 0
1 0 0
1 0 0
0 0.17239859900576493 0.09896232714691448
0.014371198126516702 0.16790559614792433 0.09113839713722051
0.07918810069185928 0.16060818859655324 0.07918810069185928
0.15036707681453867 0.15036707681453867 0.0638194349198047
0.22888032201222008 0.1367075957058308 0.04453486939944151
0.3157590316501214 0.11912498794441673 0.020807966091564406
0.41208617438415973 0.09708731485654556 0
0.5189823168654735 0.07004162007743021 0
0.6375809997310167 0.037424900730509136 0
0.7689855276786921 0 0
0.9141848082606808 0 0
1 0 0
1 0 0
1 0 0
1 0 0
1 0 0
1 0 0
0 0.23708253018325925 0.08934490419272738
0.0036808643952103565 0.23463721199119086 0.08066631359387053
0.06713914776926769 0.23027529301034666 0.06713914776926769
0.1367075957058308 0.22330929272485323 0.05010589868680834
0.21330088191833418 0.21330088191833418 0.02909022184943416
0.29788184594979894 0.1997857575511279 0.003593580753785991
0.3914520394079183 0.18227679427444102 0
0.4950345197034812 0.16027052805903982 0
0.6096448151310663 0.13325854895800418 0
0.7362410358011965 0.10074723210351497 0
0.8756302274682302 0.06229443947954744 0
1 0.017588462368731655 0
1 0 0
1 0 0
1 0 0
1 0 0
1 0 0
0 0.30200024945513665 0.07948254573513065
0 0.3013300692072212 0.07014294674745766
0.05515840267177835 0.2998059817739357 0.05515840267177835
0.12307760813202506 0.29599593071207986 0.03661844684199768
0.19768921684204946 0.289495683113485 0.014076284299178371
0.2798792009838849 0.2798792009838849 0
0.3705557278536892 0.2667022074198624 0
0.470627265240515 0.24950926073737173 0
0.5809665399789667 0.22784599284305132 0
0.702349957865928 0.20127988641137534 0
0.835348718489453 0.16943726471945886 0
0.9801121850482293 0.13207579268434802 0
1 0.09033641521290295 0
1 0.046315862194916624 0
1 0 0
1 0 0
1 0 0
0 0.366937270405757 0.06950020616664013
0 0.36775420491304645 0.05969205930342557
0.04338162533397737 0.3689287350181479 0.04338162533397737
0.10965314246853596 0.36810577774219344 0.023502264043983423
0.18227679427444102 0.36491056761929475 0
0.26205984118574344 0.3589498122683918 0
0.3498153425973249 0.3498153425973249 0
0.4463363869474864 0.33709118989526876 0
0.5523551088917183 0.32036557149737066 0
0.6684765962913612 0.29925057232904845 0
0.7950676755933739 0.2734151914116617 0
0.9320587081303953 0.2426439397062557 0
1 0.20773830023673506 0
1 0.17055711905494156 0
1 0.13044154586861437 0
1 0.09133592549072389 0
1 0.05396529786165183 0
0 0.4317174505489909 0.059504329978002354
0 0.43373114414842107 0.049412304712439
0.03191154496233706 0.43743809433003866 0.03191154496233706
0.09656823445107877 0.4394024737445278 0.010859674627716476
0.16724065513145714 0.43927350312414276 0
0.2446602307275205 0.4366840551715563 0
0.3295500095230204 0.43125402620298947 0
0.4225968456172829 0.4225968456172829 0
0.5244089312046281 0.4103303000692695 0
0.6354507553790119 0.39409371273411165 0
0.7559414961669545 0.37357521006769956 0
0.8856926979822372 0.34855604488238906 0
1 0.319543038816257 0
1 0.28817245303477157 0
1 0.25477192883687966 0
1 0.22013957698600886 0
1 0.18536646881030092 0
0 0.4962055163417317 0.04958069009449985
0 0.4991336307845835 0.0393768424311815
0.020818676323214852 0.5051930301768934 0.020818676323214852
0.08391590377142048 0.5097307413685105 0
0.1527045670277172 0.512414724782501 0
0.2278459928430513 0.5128978834702044 0
0.309982034536194 0.5108209610470116 0
0.39970704317555317 0.5058182316406246 0
0.49752687556961034 0.49752687556961034 0
0.6037994147246513 0.4856014808033565 0
0.7186482029339327 0.4697360754480141 0
0.8418375938152245 0.44969769093901013 0
0.9699867993556965 0.42569302684170107 0
1 0.3984975656907413 0
1 0.36940888052608456 0
1 0.33877244829287845 0
1 0.3072386788497111 0
0 0.5603067315454039 0.039793847307045244
0 0.5638822975383861 0.02963459296886295
0.010144077939172741 0.5721114255135877 0.010144077939172741
0.07175186485401869 0.5790076873322036 0
0.13874414837167695 0.5842533707285485 0
0.21171929532312145 0.5875164598367202 0
0.29124821662493267 0.5884530392502039 0
0.3778475240192709 0.5867121892344895 0
0.4719418841793738 0.5819440601262789 0
0.5738121671212497 0.5738121671212497 0
0.6835250769520136 0.5620115146280997 0
0.8002777347471716 0.5460394009777009 0
0.9113756857795241 0.5230247168677034 0
