GTG Channel Separator LUT.cube
LUT_3D_SIZE 5
0 0 0
0.2967163610770448 0 0
0.7428353899010246 0 0
1 0 0
1 0 0
0 0.25135268642706293 0
0.23846230498876908 0.23846230498876908 0
0.6428263945653911 0.171497861469774 0
1 0.02279217497776448 0
1 0 0
0 0.5051252272674298 0
0.17630557059682758 0.5300788110089846 0
0.5243598722331128 0.5243598722331128 0
0.9936456406785075 0.4606671043748691 0
1 0.3440747697547425 0
0 0.7499646723257102 0
0.12297529290005965 0.7995128327431286 0
0.4269081183938241 0.8341423472985758 0
0.7908611609384297 0.7908611609384297 0
1 0.7158987836579858 0
0 0.9907408251177727 0
0.07989718526610046 1 0
0.35636861692090904 1 0
0.6588439337871661 0.9984210493513652 0
0.9479602614476843 0.9479602614476843 0
0 0 0.25135268642706293
0.23846230498876908 0 0.23846230498876908
0.6428263945653911 0 0.171497861469774
1 0 0.02279217497776448
1 0 0
0 0.21908113835317605 0.21908113835317605
0.18227679427444102 0.18227679427444102 0.18227679427444102
0.5599565235628159 0.08457532676747412 0.08457532676747412
1 0 0
1 0 0
0 0.48249829927025256 0.17833446783205514
0.12127025418094972 0.4865666687358646 0.12127025418094972
0.45527324517518697 0.45527324517518697 0.0008374810218311213
0.8983323186473334 0.36481403154166475 0
1 0.2391712293431616 0
0 0.740909979725487 0.13702036054265504
0.06802475486290954 0.7741943645750766 0.06802475486290954
0.3647089025668136 0.7665364110746734 0
0.7151539660245936 0.7151539660245936 0
1 0.6457550645157751 0
0 0.9814817310475282 0.0989236619639253
0.04276049524276748 0.9919039937478291 0.04276049524276748
0.31536426043647636 0.969366315691883 0
0.6083729017590945 0.9389669833988009 0
0.8967411932531206 0.8967411932531206 0
0 0 0.5051252272674298
0.17630557059682758 0 0.5300788110089846
0.5243598722331128 0 0.5243598722331128
0.9936456406785075 0 0.4606671043748691
1 0 0.3440747697547425
0 0.17833446783205514 0.48249829927025256
0.12127025418094975 0.12127025418094975 0.48656666873586457
0.455273245175187 0.0008374810218311213 0.455273245175187
0.8983323186473334 0 0.36481403154166475
1 0 0.2391712293431615
0 0.4454437543191694 0.4454437543191694
0.058395807352519924 0.42649408200984257 0.42649408200984257
0.36455358854888203 0.36455358854888203 0.36455358854888203
0.7416233257441069 0.2671571170884901 0.2671571170884901
1 0.1448201950868762 0.1448201950868762
0 0.7156375479636916 0.4018264929636607
0.023739393209681048 0.7047653457655001 0.3646596299536422
0.3037858983288902 0.6683657632633068 0.3037858983288902
0.6175864416070949 0.6175864416070949 0.22304147098133842
0.9445638179907184 0.5517438422065434 0.12987880791988526
0 0.9137535968099709 0.36007559935071914
0.03164227954455773 0.9001355312128885 0.32856766810384563
0.28123775846166077 0.8807904565658977 0.28123775846166077
0.5495643148328804 0.8539532182468603 0.2226689350374063
0.8173694681371527 0.8173694681371527 0.16070704647143363
0 0 0.7499646723257102
0.12297529290005965 0 0.7995128327431286
0.42690811839382403 0 0.8341423472985758
0.7908611609384297 0 0.7908611609384297
1 0 0.7158987836579858
0 0.13702036054265504 0.7409099797254872
0.06802475486290949 0.06802475486290949 0.7741943645750767
0.36470890256681365 0 0.7665364110746734
0.7151539660245937 0 0.7151539660245937
1 0 0.6457550645157751
0 0.4018264929636607 0.7156375479636917
0.023739393209680992 0.3646596299536422 0.7047653457655003
0.3037858983288902 0.3037858983288902 0.6683657632633068
0.6175864416070949 0.22304147098133842 0.6175864416070949
0.9445638179907184 0.12987880791988526 0.5517438422065434
0 0.6483811438148475 0.6483811438148475
0.023346474696636532 0.6262955426122254 0.6262955426122254
0.2737026031943959 0.5922558755005661 0.5922558755005661
0.5468303828233232 0.5468303828233232 0.5468303828233232
0.8253407056716718 0.4918831285367013 0.4918831285367013
0 0.8361875837607624 0.5952547531113641
0.0424312622257364 0.8243295352662622 0.5765051759972206
0.27109189543105766 0.8066676543734023 0.5484269183126872
0.5131541734460204 0.7827986158530338 0.5131541734460204
0.7525508249158046 0.7525508249158046 0.4739085278955441
0 0 0.9907408251177728
0.07989718526610046 0 1
0.35636861692090904 0 1
0.6588439337871661 0 0.9984210493513652
0.9479602614476843 0 0.9479602614476843
0 0.09892366196392527 0.9814817310475283
0.04276049524276748 0.04276049524276748 0.9919039937478291
0.31536426043647636 0 0.9693663156918828
0.6083729017590945 0 0.9389669833988009
0.8967411932531206 0 0.8967411932531206
0 0.36007559935071914 0.9137535968099709
0.03164227954455778 0.32856766810384563 0.9001355312128883
0.28123775846166077 0.28123775846166077 0.8807904565658977
0.5495643148328804 0.2226689350374063 0.8539532182468603
0.8173694681371527 0.16070704647143363 0.8173694681371527
0 0.5952547531113641 0.8361875837607624
0.04243126222573651 0.5765051759972206 0.8243295352662621
0.2710918954310577 0.5484269183126872 0.8066676543734022
0.5131541734460204 0.5131541734460204 0.7827986158530338
0.7525508249158046 0.4739085278955441 0.7525508249158046
0 0.7836177079003117 0.7836177079003117
0.06562145345599896 0.773130167154163 0.773130167154163
0.27934744252691807 0.7580492701094105 0.7580492701094105
0.5011703629153212 0.7389199074059161 0.7389199074059161
0.7167335978054017 0.7167335978054017 0.7167335978054017
